X: 412
T: Jockey to the fair
%R: jig
Z: 2017 John Chambers <jc:trillian.mit.edu>
B: John Treat - "Gamut for the Fifes", 1779, p.43 #2
F: https://archive.org/details/GamutFortheFifes
M: 6/8
L: 1/8
K: G
% - - - - - - - - - - - - - - - - - - - - - - - - -
D |\
G2A B2c | d2g d2c | BdG GFG | (4ABcB A2d |\
dcd efg | f/g/af e2g | fed Ad^c | f3 f2 d |\
afd afd | c2c B2c | dgd dgd |
c2c B2B |\
e2f g2f | e2f B2e | e^de B2A | G2F E2F |\
G2G G2B | d3 g3 | dBG A2B | E2F G2A |\
B2g BcA | G3- G2 |]
% - - - - - - - - - - - - - - - - - - - - - - - - -
